X:1
T:Aria
T:Aria
T:Bist du bei mir
T:J. S. Bach Anna Magdalena Nb 2, BWV 508
T:by Mutopia-2007/07/08-257
C:J. S. Bach  Anna Magdalena Moderato Nb 2, BWV 508
Z:by Mutopia-2007/07/08-257
L:1/8
Q:1/4=108
M:3/4
K:C
V:1 treble nm="C Trumpet" snm="C Tpt."
V:1
"^Moderato""^espressivo e legato"!mf! !tenuto!G2!<(! (c3 d)!<)! |!>(! B4 z2!>)! | %2
!<(! (c2 F2) !tenuto!F2!<)! |!>(! (F4 E2)!>)! |"^1" z!p! G ((BG) ^FG) | (D!tenuto!G) ((BG) (^FG)) | %6
 !tenuto!C2 (A3 B/c/) |!f! (B>A) (G>A) (D>^F) ||"^2"!>(! G4 z2!>)! | c2 (e!<(!c) (_BA)!<)! | %10
!>(! A6!>)! | !tenuto!f2 (d3 c) | ((TB2 B)!>(!A/B/ c2)!>)! |"^3" z!mf! c ((ec) (Bc)) | %14
 !tenuto!Gc (ec) (Bc) | F2 (d3 e/f/) | (e>d) (c>d) (G>B) | c4 z2 ||"^4" e2 (c3 B) | A4 z2 | %20
 d2 (G3 A) | (^F2 EF D2) |"^5" z!p! A (cA ^GA) | EA!<(! (cA ^GA)!<)! | %24
!>(! (D^C D2)!>)!!<(! (B3/2c/4d/4)!<)! | (c>B) (A>B) (E>^G) |!>(! A6!>)! | %27
"^6" !tenuto!D2!<(! (c3 d)!<)! |!>(! B4 z2!>)! |!<(! (c2 F2) !tenuto!F2!<)! |!>(! F4 E2!>)! | %31
 z"^7"!p! G ((BG) (^FG)) |!<(! (DG) ((BG)!<)! (^FG)) | (CB, C2) (A3/2B/4c/4) | (B>A) (G>A) (D>^F) | %35
 G4 z2 |"^8"!f! c2 (ec) (_BA) |!<(! A6!<)! |!f! f2 (d3 c) | (TB2- B!>(!A/B/ c2)!>)! | %40
 z!mf! c (ec) (Bc) |!<(! !tenuto!Gc (ec) (Bc)!<)! | !tenuto!F2"_cresc." (d3 e/f/) | %43
!f! (e>"_rit. al fine"d) (c>d) (G>B) | !fermata!c6 |] %45

